src/images/bg-color/bg-bottom-tablet.svg

<svg xmlns="http://www.w3.org/2000/svg" fill="none" viewBox="0 0 768 1550" preserveAspectRatio="none" x="0" y="0">
<path fill="#FEF3E4" d="M-34.2116 275.273c9.9264 55.774-27.5736 51.263-47.5644 42.035v684.862c0 133.84-9.504 476.2 0 513.9 5.768 22.88 55.8364-94.93 47.5643-120.56-8.272-25.63-24.8161-119.35 11.3741-129.6s41.3602-33.83 59.9723-63.56c18.6121-29.74 66.1763-88.17 181.9853-43.06s192.325 4.1 247.128-36.91c108.57-81.25 292.712.4 343.888 70 26.855 36.52-46.404 217.07 0 234.48 23.184 8.7 43.864 168.61 43.864-8.7V263.996c-.689 7.518-5.79 20.3-20.68 11.277-43.842-22.145-25.85-89.879-11.374-120.978 7.927-29.732 10.547-99.4485-42.394-140.4582-62.263-48.2302-245.48 45.111-351.769 45.1108-116.124-.0002-172.473-26.6563-241.751-51.26211C116.753-16.9203 61.9508 25.1146 40.2367 58.9475c-21.7141 33.833-22.748 47.1615-55.8362 62.5395-65.1424 23.581-31.0202 84.07-18.6121 153.786Z"/></svg>

<svg width="768" height="1512" viewBox="0 0 768 1512" fill="none" xmlns="http://www.w3.org/2000/svg">
<path d="M-34.2116 275.273C-24.2852 331.047 -61.7852 326.536 -81.776 317.308V1002.17C-81.776 1136.01 -91.28 1478.37 -81.776 1516.07C-76.008 1538.95 -25.9396 1421.14 -34.2117 1395.51C-42.4837 1369.88 -59.0278 1276.16 -22.8376 1265.91C13.3526 1255.66 18.5226 1232.08 37.1347 1202.35C55.7468 1172.61 103.311 1114.18 219.12 1159.29C334.929 1204.4 411.445 1163.39 466.248 1122.38C574.818 1041.13 758.96 1122.78 810.136 1192.38C836.991 1228.9 763.732 1409.45 810.136 1426.86C833.32 1435.56 854 1595.47 854 1418.16L854 263.996C853.311 271.514 848.21 284.296 833.32 275.273C789.478 253.128 807.47 185.394 821.946 154.295C829.873 124.563 832.493 54.8464 779.552 13.8368C717.289 -34.3934 534.072 58.9478 427.783 58.9476C311.659 58.9474 255.31 32.2913 186.032 7.68549C116.753 -16.9203 61.9509 25.1146 40.2367 58.9475C18.5226 92.7805 17.4887 106.109 -15.5995 121.487C-80.7419 145.068 -46.6197 205.557 -34.2116 275.273Z" fill="#FEF3E4"/>
</svg>
